icon-themes/elementary_svg/sw/res/sidebar/pageproppanel/columnleft_24x24.svg

<svg viewBox="0 0 24 24" xmlns="http://www.w3.org/2000/svg" xmlns:xlink="http://www.w3.org/1999/xlink"><linearGradient id="a" gradientTransform="matrix(.0435 0 0 .00824 -3.72 16.98)" gradientUnits="userSpaceOnUse" x1="302.857" x2="302.857" y1="366.648" y2="609.505"><stop offset="0" stop-opacity="0"/><stop offset=".5"/><stop offset="1" stop-opacity="0"/></linearGradient><radialGradient id="b" cx="605.714" cy="486.648" gradientTransform="matrix(-.01205 0 0 .00824 8.76 16.98)" gradientUnits="userSpaceOnUse" r="117.143" xlink:href="#c"/><linearGradient id="c"><stop offset="0"/><stop offset="1" stop-opacity="0"/></linearGradient><radialGradient id="d" cx="605.714" cy="486.648" gradientTransform="matrix(.01205 0 0 .00824 15.24 16.98)" gradientUnits="userSpaceOnUse" r="117.143" xlink:href="#c"/><linearGradient id="e" gradientTransform="matrix(.48572 0 0 .4563 .343 .35)" gradientUnits="userSpaceOnUse" x1="5.471" x2="40.471" y1="25.534" y2="25.534"><stop offset="0" stop-color="#f4f4f4"/><stop offset="1" stop-color="#dbdbdb"/></linearGradient><linearGradient id="f" gradientTransform="matrix(.4054 0 0 .5135 2.27 -.324)" gradientUnits="userSpaceOnUse" x1="6.735" x2="41.268" y1="24" y2="24"><stop offset="0" stop-color="#fff"/><stop offset=".027" stop-color="#fff" stop-opacity=".235"/><stop offset="1" stop-color="#fff" stop-opacity=".157"/><stop offset="1" stop-color="#fff" stop-opacity=".392"/></linearGradient><path d="m1.5 20h21v2h-21z" fill="url(#a)" opacity=".15"/><path d="m1.5 20v2c-.62.004-1.5-.448-1.5-1s.692-1 1.5-1z" fill="url(#b)" opacity=".15"/><path d="m22.5 20v2c.62.004 1.5-.448 1.5-1s-.692-1-1.5-1z" fill="url(#d)" opacity=".15"/><path d="m3.5 1.5h17v21h-17z" fill="url(#e)" transform="matrix(0 1 -1 0 24 0)"/><g fill="none"><path d="m19.5 21.5h-15v-19h15z" stroke="url(#f)" stroke-linecap="round" transform="matrix(0 1 -1 0 24 0)"/><path d="m22.5 3.5v17h-21v-17z" opacity=".3" stroke="#000" stroke-linejoin="round"/><path d="m16.507 7.5h3m-3 3h3m-3 3h3m-3 3h3m-15-9h8.993m-8.993 3h8.993m-8.993 3h8.993m-8.993 3h8.993" stroke="#616161" stroke-linecap="round"/></g></svg>

<svg xmlns="http://www.w3.org/2000/svg" xmlns:xlink="http://www.w3.org/1999/xlink" viewBox="0 0 24 24"><linearGradient id="b" gradientTransform="matrix(.0435 0 0 .00824 -3.72 16.98)" gradientUnits="userSpaceOnUse" x1="302.857" x2="302.857" y1="366.648" y2="609.505"><stop offset="0" stop-opacity="0"/><stop offset=".5"/><stop offset="1" stop-opacity="0"/></linearGradient><radialGradient id="c" cx="605.714" cy="486.648" gradientTransform="matrix(-.01205 0 0 .00824 8.76 16.98)" gradientUnits="userSpaceOnUse" r="117.143" xlink:href="#a"/><linearGradient id="a"><stop offset="0"/><stop offset="1" stop-opacity="0"/></linearGradient><radialGradient id="d" cx="605.714" cy="486.648" gradientTransform="matrix(.01205 0 0 .00824 15.24 16.98)" gradientUnits="userSpaceOnUse" r="117.143" xlink:href="#a"/><linearGradient id="e" gradientTransform="matrix(.48572 0 0 .4563 .343 .35)" gradientUnits="userSpaceOnUse" x1="5.471" x2="40.471" y1="25.534" y2="25.534"><stop offset="0" stop-color="#f4f4f4"/><stop offset="1" stop-color="#dbdbdb"/></linearGradient><linearGradient id="f" gradientTransform="matrix(.4054 0 0 .5135 2.27 -.324)" gradientUnits="userSpaceOnUse" x1="6.735" x2="41.268" y1="24" y2="24"><stop offset="0" stop-color="#fff"/><stop offset=".027" stop-color="#fff" stop-opacity=".235"/><stop offset="1" stop-color="#fff" stop-opacity=".157"/><stop offset="1" stop-color="#fff" stop-opacity=".392"/></linearGradient><path d="M1.5 20h21v2h-21z" fill="url(#b)" opacity=".15"/><path d="M1.5 20v2c-.62.004-1.5-.448-1.5-1s.692-1 1.5-1z" fill="url(#c)" opacity=".15"/><path d="M22.5 20v2c.62.004 1.5-.448 1.5-1s-.692-1-1.5-1z" fill="url(#d)" opacity=".15"/><path d="M3.5 1.5h17v21h-17v-21z" fill="url(#e)" transform="rotate(90 12 12)"/><path d="M19.5 21.5h-15v-19h15z" fill="none" stroke="url(#f)" stroke-linecap="round" transform="rotate(90 12 12)"/><path d="M22.5 3.5v17h-21v-17h21z" fill="none" opacity=".3" stroke="#000" stroke-linejoin="round"/><g fill="none" stroke="#616161" stroke-linecap="round"><path d="M16.507 7.5h3M16.507 10.5h3M16.507 13.5h3M16.507 16.5h3M4.507 7.5H13.5M4.507 10.5H13.5M4.507 13.5H13.5M4.507 16.5H13.5"/></g></svg>
